X:232
T:Danza del Oso                                                                                     
M:4/4                                                                                               
N: The Bear's Dance from Jose Luis Ruiz - IRTRAD                                                    
R:Reel                                                                                              
K:Am                                                                                                
e2A2 A2ed|e2A2 A2AB|c2c2 B2c2|d4 d2cd|\                                                             
e2e2 dcB2|c2c2 BAG2|A2c2 BAG2|A8 :|                                                                 
ABc2 ABc2 |B2G2 G4|ABc2 ABc2|d4 d2cd|\                                                              
e2e2 dcB2|c2c2 BAG2|A2c2 BAG2|A8 :|
